X: 8960
T: Cut The File
R: jig
M: 6/8
K: Adorian
|:f|ecA A2B|c3B2A|d2d def|gfe faf|
ecAA2B|c3B2A|G2Bd2g|ecA A2:|
|:f|ecA e2f|g3f2e|a2a aba|g2f efg|
a2a aba|g2f e2g|f2d def|gfe faf:|

